components/icon/svg/24/communication_feedback.svg

<?xml version="1.0" encoding="UTF-8"?>
<svg width="24px" height="24px" viewBox="0 0 24 24" version="1.1" xmlns="http://www.w3.org/2000/svg" xmlns:xlink="http://www.w3.org/1999/xlink">
    <!-- Generator: Sketch 64 (93537) - https://sketch.com -->
    <title>ic-db_communication_feedback_24</title>
    <desc>Created with Sketch.</desc>
    <g id="Symbols:Icon" stroke="none" stroke-width="1" fill="none" fill-rule="evenodd">
        <g id="24dp-Icon/Communication/Feedback" fill="#282D37">
            <path d="M18.9953,2 C20.6385,2 22,3.3615 22,5.0047 L22,15.0047 C22,16.6479 20.6385,17.9859 18.9953,17.9859 L7.9624,17.9859 C7.6808,17.9859 7.446,18.0798 7.2582,18.2676 L3.6901,21.7183 C3.5023,21.9061 3.2676,22 3.0094,22 C2.493,22 2,21.6009 2,20.9906 L2,5.0047 C2,3.3615 3.3615,2 5.0047,2 L18.9953,2 Z M18.9953,4.0188 L5.0047,4.0188 C4.4413,4.0188 4.0188,4.4413 4.0188,5.0047 L4.0188,18.7136 L5.8732,16.9061 C6.4131,16.4131 7.0704,16.0845 7.7746,16.061 L18.9953,16.061 C19.5587,16.061 19.9812,15.615 19.9812,15.0516 L19.9812,5.0047 C19.9812,4.4413 19.5587,4.0188 18.9953,4.0188 Z M12,6 C12.5581534,6 13,6.46156115 13,7.01533622 L13,9.53077074 C13,10.1077468 12.5814345,10.5 12,10.5 C11.4418466,10.5 11,10.0846441 11,9.53077074 L11,7.01533622 C11,6.53077074 11.3488211,6 12,6 Z M12.0235,13.9249 C12.6573,13.9249 13.1972,13.4319 13.1972,12.7746 C13.1972,12.1643 12.6573,11.6479 12.0235,11.6479 C11.4131,11.6479 10.8732,12.1643 10.8732,12.7746 C10.8732,13.4319 11.4131,13.9249 12.0235,13.9249 Z" id="🎨-Color"></path>
        </g>
    </g>
</svg>

<svg width="24" height="24" xmlns="http://www.w3.org/2000/svg"><path d="M18.995 2A3.026 3.026 0 0122 5.005v10c0 1.643-1.361 2.98-3.005 2.98H7.962a.956.956 0 00-.704.283l-3.568 3.45a.94.94 0 01-.68.282C2.492 22 2 21.6 2 20.99V5.006A3.026 3.026 0 015.005 2h13.99zm0 2.019H5.005a.963.963 0 00-.986.986v13.709l1.854-1.808c.54-.493 1.197-.822 1.902-.845h11.22c.564 0 .986-.446.986-1.01V5.006a.963.963 0 00-.986-.986zM12 6c.558 0 1 .462 1 1.015v2.516c0 .577-.419.969-1 .969-.558 0-1-.415-1-.97V7.016C11 6.531 11.349 6 12 6zm.024 7.925c.633 0 1.173-.493 1.173-1.15 0-.61-.54-1.127-1.173-1.127-.61 0-1.15.516-1.15 1.127 0 .657.54 1.15 1.15 1.15z" fill="#282D37" fill-rule="evenodd"/></svg>
